X: 30741
T: Oró A Bhuachaillín
R: slide
M: 12/8
K: Dmajor
A2G FED F2G A3|d3 cBA B2G E3|
A2G FED EFG A3|Bcd e2d cBc d3:|
f3 f2e d2c B3|e3 e2d cdB A3|
f2f f2e d2c Bcd|e3 efd ABc d3:|

